X: 1281
M: 3/8
L: 1/16
K: G
V: 1
"PRIMO"d2 |\
g2d2e2 | dd/c/ B2d2 | c2cB A2c2 | B2Bc d2G2 |\
g2d2e2 | dd/c/ B2d2 | c2cB A2c2 | G4 :|
|: D2 |\
|: B2 |\
(dc)(Bc)(Bc) | A4 c2 | (cB)(AB)(e>d) | d4B2 |\
(dc)(Bc)(Bc) | A4 c2 | {c}BABdcA | B4 :|
V: 2
"SECONDO"G2 |\
|: z2 |\
|: G2 |\

